svg/email.svg

<?xml version="1.0" encoding="UTF-8"?>
<svg xmlns="http://www.w3.org/2000/svg" xmlns:xlink="http://www.w3.org/1999/xlink" width="32" height="32" viewBox="0 0 32 32">
<path fill="none" stroke-width="2.667" stroke-linecap="round" stroke-linejoin="round" stroke="rgb(0%, 0%, 0%)" stroke-opacity="1" stroke-miterlimit="4" d="M 5.332031 12 L 13.601562 18.199219 C 15.023438 19.265625 16.976562 19.265625 18.398438 18.199219 L 26.667969 12 "/>
<path fill="none" stroke-width="2.667" stroke-linecap="round" stroke-linejoin="miter" stroke="rgb(0%, 0%, 0%)" stroke-opacity="1" stroke-miterlimit="4" d="M 4 12.234375 C 4 11.265625 4.523438 10.371094 5.371094 9.902344 L 14.707031 4.71875 C 15.511719 4.273438 16.488281 4.273438 17.292969 4.71875 L 26.628906 9.902344 C 27.476562 10.371094 28 11.265625 28 12.234375 L 28 22.667969 C 28 24.140625 26.804688 25.332031 25.332031 25.332031 L 6.667969 25.332031 C 5.195312 25.332031 4 24.140625 4 22.667969 Z M 4 12.234375 "/>
</svg>

<svg role="img" viewBox="0 0 32 32" height="32" width="32" xmlns="http://www.w3.org/2000/svg"><path d="m5.332 12 8.27 6.2a3.996 3.996 0 0 0 4.796 0l8.27-6.2" fill="none" stroke="rgb(0%, 0%, 0%)" stroke-linecap="round" stroke-linejoin="round" stroke-width="2.667"/><path d="M4 12.234c0-.968.523-1.863 1.371-2.332l9.336-5.183a2.67 2.67 0 0 1 2.586 0l9.336 5.183A2.663 2.663 0 0 1 28 12.234v10.434a2.666 2.666 0 0 1-2.668 2.664H6.668A2.666 2.666 0 0 1 4 22.668Zm0 0" fill="none" stroke="rgb(0%, 0%, 0%)" stroke-linecap="round" stroke-width="2.667"/></svg>
